!!!COM: Mao-Yun, Cheng
!!!CDT: 1900-1957
!!!OTL: National Anthem, Taiwan
!!!ENC: Davis, Matthew J.
!!Vocal Line Only
**kern
*clefG2
*k[]
*C:
*M4/4
=1-
4c
=2
2.c
4e
=3
2.e
4g
=4
2.g
4e
=5
2.d
4e
=6
2.cc
8a
8g
=7
2.a
4e
=8
2.a
8g
8f#
=9
2g
4r
4g
=10
4f
4a
4g
4cc
=11
4b
4dd
4cc
4a
=12
4a
4cc
4a
4g
=13
4e
4d
4c
4g
=14
2.g
8a
8g
=15
2.g
4cc
=16
2.cc
8a
8g
=17
2.g
4g
=18
2.ee
8.dd
16ee
=19
2.dd
4g
=20
2.dd
8.dd
16ee
=21
2.cc
==|!
*-
